client/public/img/game/winter/obstacles/propane_tank_winter_2.svg

<?xml version="1.0" encoding="UTF-8" standalone="no"?>
<svg
   width="78.085999"
   height="78.085999"
   viewBox="0 0 20.66 20.66"
   version="1.1"
   id="svg5"
   sodipodi:docname="propane_tank_winter_2.svg"
   xml:space="preserve"
   inkscape:version="1.3.2 (091e20e, 2023-11-25, custom)"
   xmlns:inkscape="http://www.inkscape.org/namespaces/inkscape"
   xmlns:sodipodi="http://sodipodi.sourceforge.net/DTD/sodipodi-0.dtd"
   xmlns:xlink="http://www.w3.org/1999/xlink"
   xmlns="http://www.w3.org/2000/svg"
   xmlns:svg="http://www.w3.org/2000/svg"><defs
     id="defs5"><linearGradient
       xlink:href="#a"
       id="b"
       x1="112.28"
       x2="96.735001"
       y1="85.870003"
       y2="54.828999"
       gradientTransform="matrix(0.40778,0,0,0.40778,-16.765,-2.886)"
       gradientUnits="userSpaceOnUse" /><linearGradient
       id="a"><stop
         offset=".538"
         style="stop-color:#008cff;stop-opacity:1"
         id="stop1" /><stop
         offset="1"
         style="stop-color:#a5d9ff;stop-opacity:1"
         id="stop2" /></linearGradient></defs><sodipodi:namedview
     id="namedview5"
     pagecolor="#ffffff"
     bordercolor="#000000"
     borderopacity="0.25"
     inkscape:showpageshadow="2"
     inkscape:pageopacity="0.0"
     inkscape:pagecheckerboard="0"
     inkscape:deskcolor="#d1d1d1"
     inkscape:zoom="7.4345552"
     inkscape:cx="38.60352"
     inkscape:cy="23.202464"
     inkscape:window-width="1920"
     inkscape:window-height="1017"
     inkscape:window-x="-8"
     inkscape:window-y="-8"
     inkscape:window-maximized="1"
     inkscape:current-layer="svg5" /><ellipse
     cx="10.330001"
     cy="10.329677"
     rx="9.4046307"
     ry="9.4043064"
     style="display:inline;fill:#b08b3f;fill-opacity:1;stroke:#382c14;stroke-width:1.85074;stroke-linecap:round;stroke-linejoin:round;stroke-dasharray:none;stroke-opacity:1"
     id="ellipse1" /><path
     style="fill:#c9d1d9;stroke:#a2a5c0;stroke-width:1.85206;stroke-linecap:square;stroke-linejoin:round;stroke-miterlimit:10.8;paint-order:fill markers stroke"
     d="m 4.4840732,8.0428616 c -1.4946912,0 -1.9217457,1.4946909 -1.8861578,2.0996854 0.035588,0.604994 0.7829335,2.206448 1.8505699,2.17086 C 5.5161218,12.277817 5.8364128,12.13547 6.2634674,11.921941 6.4862823,11.810532 7.3279205,10.439429 6.2990554,8.9681465 5.7181558,8.137457 5.4248926,8.0428616 4.4840732,8.0428616 Z"
     id="path13"
     sodipodi:nodetypes="ssssss" /><path
     d="m 13.938242,9.6487268 h 0.537036 v 1.4928902 h -0.537036 z"
     style="fill:#726531;fill-opacity:1;fill-rule:evenodd;stroke:#722727;stroke-width:0.91794;stroke-linecap:round;stroke-linejoin:round;stroke-dasharray:none;stroke-opacity:1"
     id="path1" /><path
     d="M 6.309731,9.3937456 7.0667818,9.5037375 H 14.091252 V 11.286606 H 7.0667818 L 6.309731,11.396598 Z"
     style="fill:#808080;fill-opacity:1;fill-rule:evenodd;stroke:#262626;stroke-width:0.917828;stroke-linecap:round;stroke-linejoin:round;stroke-dasharray:none;stroke-opacity:1"
     id="path2" /><path
     d="m 12.748162,12.516516 c -0.441029,0.440967 -0.668045,-0.13899 -1.244083,0.09999 -0.576039,0.237983 -0.325022,0.808941 -0.950064,0.808941 -0.6220413,0 -0.372025,-0.569958 -0.9480631,-0.809941 -0.5760386,-0.23798 -0.8030538,0.341977 -1.2440834,-0.09899 -0.4400295,-0.439968 0.1400094,-0.666951 -0.099007,-1.242909 -0.238016,-0.575957 -0.8090542,-0.325976 -0.8090542,-0.94993 0,-0.6239539 0.5700382,-0.3729724 0.8100543,-0.94893 C 8.5018779,8.7987895 7.920839,8.5728061 8.3618685,8.1318386 8.8028981,7.6908711 9.0299133,8.2718283 9.6059519,8.031846 10.18199,7.7938636 9.9309736,7.2229056 10.555015,7.2229056 c 0.624042,0 0.373025,0.569958 0.950064,0.8099403 0.575038,0.2379825 0.801053,-0.3419748 1.243083,0.098993 0.44003,0.4399676 -0.140009,0.6669509 0.09901,1.2429084 0.238016,0.5759576 0.809054,0.325976 0.809054,0.9499297 0,0.623954 -0.570038,0.371973 -0.810054,0.94893 -0.238016,0.575958 0.342023,0.801941 -0.09901,1.242909 z"
     style="fill:#a73f3f;fill-opacity:1;fill-rule:evenodd;stroke:#421a1a;stroke-width:0.917923;stroke-linecap:round;stroke-linejoin:round;stroke-dasharray:none;stroke-opacity:1"
     id="path3" /><g
     id="g6"
     transform="matrix(1.000067,0,0,0.9999263,-6.916922e-4,4.3796381e-4)"
     style="stroke-width:1"><path
       d="m 5.56,5.623 a 6.66,6.65 33.165 0 1 7.253,-1.437 6.66,6.65 33.165 0 1 4.113,6.15 6.66,6.65 33.165 0 1 -4.105,6.141 6.66,6.65 33.165 0 1 -7.255,-1.446"
       style="display:inline;fill:none;fill-opacity:1;stroke:#382c14;stroke-width:1.32206;stroke-linecap:round;stroke-linejoin:round;stroke-dasharray:none;stroke-opacity:1"
       id="path4" /><path
       d="m 5.534,15.014 -1.803,1.8 M 5.554,5.606 4,4.053"
       style="fill:none;fill-opacity:1;fill-rule:evenodd;stroke:#382c14;stroke-width:1.32206;stroke-linecap:round;stroke-linejoin:round;stroke-dasharray:none;stroke-opacity:1"
       id="path5" /></g><path
     id="path9"
     style="fill:#c9d1d9;stroke:#a2a5c0;stroke-width:1.85206;stroke-linecap:square;stroke-linejoin:round;stroke-miterlimit:10.8;paint-order:fill markers stroke"
     d="m 10.329992,0.92551353 c -2.5879834,-2e-8 -5.0742623,0.76040987 -6.6238038,2.64735107 l 1.8505103,2.0417108 c 1.905613,-1.8924073 4.7681375,-2.4594229 7.2563155,-1.428319 0.802105,0.3325611 1.512913,0.8116442 2.109923,1.39628 C 16.073156,5.1086565 16.640544,4.2362116 16.572428,3.2984662 14.911695,1.8230253 12.726245,0.92551356 10.329992,0.92551353 Z"
     sodipodi:nodetypes="scccccs" /><path
     id="path11"
     style="fill:#c9d1d9;stroke:#a2a5c0;stroke-width:1.85206;stroke-linecap:square;stroke-linejoin:round;stroke-miterlimit:10.8;paint-order:fill markers stroke"
     d="m 16.793084,13.910608 c -0.320922,0.001 -0.639432,0.02577 -0.950835,0.06098 -0.717091,1.096553 -1.756228,1.981904 -3.020967,2.504726 -0.266606,0.110214 -0.538182,0.198554 -0.811827,0.272332 -0.236047,0.462048 -0.533087,0.773014 -0.835081,1.045401 C 9.359393,19.431087 7.0398034,19.741323 6.7617781,17.437998 6.6139311,16.213146 5.957267,15.965472 4.7743269,15.777138 l -1.1988785,1.167356 c 1.6872515,1.78278 4.170439,2.78946 6.7545436,2.78946 3.790791,0 7.055536,-2.244099 8.544076,-5.475051 -0.605614,-0.249452 -1.341145,-0.350706 -2.080984,-0.348295 z"
     sodipodi:nodetypes="scscssccscs" /></svg>

<svg xmlns="http://www.w3.org/2000/svg" xml:space="preserve" width="78.086" height="78.086" viewBox="0 0 20.66 20.66"><ellipse cx="10.33" cy="10.33" rx="9.405" ry="9.404" style="display:inline;fill:#b08b3f;fill-opacity:1;stroke:#382c14;stroke-width:1.85074;stroke-linecap:round;stroke-linejoin:round;stroke-dasharray:none;stroke-opacity:1"/><path d="M4.484 8.043c-1.495 0-1.922 1.495-1.886 2.1s.783 2.206 1.85 2.17c1.068-.035 1.388-.178 1.815-.391.223-.111 1.065-1.483.036-2.954-.58-.83-.874-.925-1.815-.925Z" style="fill:#c9d1d9;stroke:#a2a5c0;stroke-width:1.85206;stroke-linecap:square;stroke-linejoin:round;stroke-miterlimit:10.8;paint-order:fill markers stroke"/><path d="M13.938 9.649h.537v1.493h-.537z" style="fill:#726531;fill-opacity:1;fill-rule:evenodd;stroke:#722727;stroke-width:.91794;stroke-linecap:round;stroke-linejoin:round;stroke-dasharray:none;stroke-opacity:1"/><path d="m6.31 9.394.757.11h7.024v1.783H7.067l-.757.11Z" style="fill:gray;fill-opacity:1;fill-rule:evenodd;stroke:#262626;stroke-width:.917828;stroke-linecap:round;stroke-linejoin:round;stroke-dasharray:none;stroke-opacity:1"/><path d="M12.748 12.517c-.44.44-.668-.14-1.244.1-.576.237-.325.808-.95.808-.622 0-.372-.57-.948-.81-.576-.237-.803.342-1.244-.098s.14-.667-.1-1.243c-.237-.576-.808-.326-.808-.95s.57-.373.81-.95c.238-.575-.343-.801.098-1.242.44-.441.668.14 1.244-.1.576-.238.325-.81.949-.81s.373.57.95.81c.575.239.801-.341 1.243.1.44.44-.14.667.1 1.243.237.576.808.326.808.95s-.57.372-.81.949c-.238.576.342.802-.099 1.243z" style="fill:#a73f3f;fill-opacity:1;fill-rule:evenodd;stroke:#421a1a;stroke-width:.917923;stroke-linecap:round;stroke-linejoin:round;stroke-dasharray:none;stroke-opacity:1"/><g style="stroke-width:1"><path d="M5.56 5.623a6.66 6.65 33.165 0 1 7.253-1.437 6.66 6.65 33.165 0 1 4.113 6.15 6.66 6.65 33.165 0 1-4.105 6.141 6.66 6.65 33.165 0 1-7.255-1.446" style="display:inline;fill:none;fill-opacity:1;stroke:#382c14;stroke-width:1.32206;stroke-linecap:round;stroke-linejoin:round;stroke-dasharray:none;stroke-opacity:1" transform="scale(1.00007 .99993)"/><path d="m5.534 15.014-1.803 1.8M5.554 5.606 4 4.053" style="fill:none;fill-opacity:1;fill-rule:evenodd;stroke:#382c14;stroke-width:1.32206;stroke-linecap:round;stroke-linejoin:round;stroke-dasharray:none;stroke-opacity:1" transform="scale(1.00007 .99993)"/></g><path d="M10.33.926c-2.588 0-5.074.76-6.624 2.647l1.85 2.042a6.675 6.675 0 0 1 7.257-1.429 6.7 6.7 0 0 1 2.11 1.397c1.15-.474 1.718-1.347 1.65-2.285A9.37 9.37 0 0 0 10.33.926ZM16.793 13.91c-.32.002-.64.026-.95.062a6.64 6.64 0 0 1-3.022 2.504q-.4.164-.812.273c-.236.462-.533.773-.835 1.045-1.815 1.637-4.134 1.947-4.412-.356-.148-1.225-.805-1.473-1.988-1.66l-1.199 1.166c1.688 1.783 4.17 2.79 6.755 2.79a9.4 9.4 0 0 0 8.544-5.475c-.606-.25-1.341-.35-2.08-.348z" style="fill:#c9d1d9;stroke:#a2a5c0;stroke-width:1.85206;stroke-linecap:square;stroke-linejoin:round;stroke-miterlimit:10.8;paint-order:fill markers stroke"/></svg>
